src/categories-icons-sprite/categories/svg-cat-women-underwear.svg

<svg width="31" height="28" viewBox="0 0 31 28" fill="none" xmlns="http://www.w3.org/2000/svg">
<path class="p-FC756B" d="M24.7248 1.03306V4.4446C22.9239 4.88163 20.798 5.19866 18.4749 5.35748C17.547 5.42041 16.8247 6.1886 16.8247 7.11795L16.8259 14.6963C15.6997 14.9462 14.4941 14.9635 13.2935 14.6974L13.2947 7.11795C13.2947 6.1886 12.5723 5.42041 11.6445 5.35748C9.319 5.19866 7.1902 4.88104 5.38867 4.44342V1.03247C11.0217 2.39885 19.0683 2.41003 24.7248 1.03306Z" fill="#65B3E7"/>
<path class="p-FE4F34" d="M15.0605 2.06112V14.8897C15.6624 14.8894 16.2548 14.8228 16.8267 14.6959L16.8255 7.11761C16.8255 6.18826 17.5479 5.42007 18.4757 5.35714C20.7988 5.19832 22.9247 4.88129 24.7257 4.44426V1.03271C21.9007 1.72038 18.4795 2.06176 15.0605 2.06112Z" fill="#4D98CB"/>
<path class="p-FEC356" d="M25.4323 24.5814C3.24221 24.5814 4.60859 24.6071 4.43777 24.5285C4.24585 24.4408 4.05927 24.3432 3.87793 24.2367V27.1177C3.87793 27.6047 4.27296 28 4.76099 28H25.4217C25.9092 28 26.3048 27.6047 26.3048 27.1177V24.1956C26.1102 24.3137 25.6596 24.5814 25.4323 24.5814Z" fill="#B9DFFC"/>
<path class="p-FEB020" d="M25.4327 24.5814C21.1623 24.5814 17.765 24.5824 15.0605 24.5834V28H25.4221C25.9096 28 26.3052 27.6047 26.3052 27.1177V24.1956C26.1105 24.3137 25.66 24.5814 25.4327 24.5814Z" fill="#A1D1FD"/>
<path class="p-FE4E33" d="M27.9109 10.788C26.1614 7.26996 26.1977 6.48324 26.1977 4.76665H25.8898C25.3498 11.0892 20.7355 16.0671 15.0579 16.0671C9.39402 16.0671 4.76598 7.34013 4.2259 1.0022C3.53607 1.0022 2.99462 1.56116 3.05597 2.24825C3.24807 4.39979 3.62492 7.94048 2.20362 10.791C1.17098 12.8632 0 15.2118 0 18.3222C0 21.6291 1.69377 24.54 4.31536 25.737C4.5747 25.856 3.23826 25.817 25.433 25.817C26.3544 25.817 30.1156 23.385 30.1156 18.3222C30.1156 15.2195 28.9441 12.8649 27.9109 10.788Z" fill="#58ADE5"/>
<path class="p-FE1600" d="M27.9107 10.788C26.4907 7.93267 26.8671 4.39678 27.0593 2.24819C27.1208 1.56111 26.5794 1.0022 25.8896 1.0022C25.3497 7.32366 20.7369 16.0653 15.0605 16.067V25.8199C17.7671 25.8184 21.1643 25.817 25.4327 25.817C26.3542 25.817 30.1154 23.3849 30.1154 18.3222C30.1154 15.2195 28.9439 12.8649 27.9107 10.788Z" fill="#4D98CB"/>
<path class="p-FEC356" d="M15.059 16.3607C9.19185 16.3607 4.41516 11.1995 3.92167 4.64352C3.91778 4.59258 3.9192 4.82597 3.9192 0.882294C3.9192 0.395033 4.31458 0 4.80225 0C5.28993 0 5.68537 0.395033 5.68537 0.882294V4.5437C6.12417 10.1834 10.2361 14.5961 15.059 14.5961C19.8813 14.5961 23.9933 10.1834 24.4327 4.54364V0.882294C24.4327 0.395033 24.8281 0 25.3158 0C25.8036 0 26.1989 0.395033 26.1989 0.882294C26.1989 4.82603 26.2003 4.59264 26.1964 4.64357C25.7023 11.1975 20.9278 16.3607 15.059 16.3607Z" fill="#B9DFFC"/>
<path class="p-FEB020" d="M26.1975 0.882294C26.1975 0.395033 25.8021 0 25.3144 0C24.8267 0 24.4313 0.395033 24.4313 0.882294V4.54364C23.992 10.1823 19.8815 14.5943 15.0605 14.5961V16.3607C20.9279 16.359 25.701 11.1964 26.195 4.64363C26.1989 4.59264 26.1975 4.82597 26.1975 0.882294Z" fill="#A1D1FD"/>
</svg>

<svg width="31" height="28" fill="none" xmlns="http://www.w3.org/2000/svg"><path class="p-FC756B" d="M24.725 1.033v3.412c-1.801.437-3.927.754-6.25.912a1.767 1.767 0 00-1.65 1.761v7.578a8.155 8.155 0 01-3.531.001V7.118c0-.93-.722-1.698-1.65-1.76-2.325-.16-4.454-.477-6.255-.915v-3.41c5.633 1.366 13.68 1.377 19.336 0z" fill="#65B3E7"/><path class="p-FE4F34" d="M15.06 2.061V14.89c.602 0 1.195-.067 1.767-.194l-.002-7.578c0-.93.723-1.698 1.65-1.76 2.324-.16 4.45-.477 6.25-.914V1.033c-2.824.687-6.245 1.029-9.665 1.028z" fill="#4D98CB"/><path class="p-FEC356" d="M25.432 24.581c-22.19 0-20.823.026-20.994-.052a6.166 6.166 0 01-.56-.292v2.88c0 .488.395.883.883.883h20.66a.883.883 0 00.884-.882v-2.922c-.195.118-.645.385-.873.385z" fill="#B9DFFC"/><path class="p-FEB020" d="M25.433 24.581l-10.373.002V28h10.362a.883.883 0 00.883-.882v-2.922c-.195.118-.645.385-.872.385z" fill="#A1D1FD"/><path class="p-FE4E33" d="M27.91 10.788c-1.749-3.518-1.712-4.305-1.712-6.021h-.308c-.54 6.322-5.155 11.3-10.832 11.3-5.664 0-10.292-8.727-10.832-15.065-.69 0-1.231.56-1.17 1.246.192 2.152.569 5.692-.852 8.543C1.17 12.863 0 15.211 0 18.322c0 3.307 1.694 6.218 4.315 7.415.26.119-1.077.08 21.118.08.921 0 4.683-2.432 4.683-7.495 0-3.102-1.172-5.457-2.205-7.534z" fill="#58ADE5"/><path class="p-FE1600" d="M27.91 10.788c-1.42-2.855-1.043-6.391-.85-8.54.06-.687-.48-1.246-1.17-1.246-.54 6.322-5.153 15.063-10.83 15.065v9.753c2.707-.002 6.104-.003 10.373-.003.921 0 4.682-2.432 4.682-7.495 0-3.102-1.171-5.457-2.204-7.534z" fill="#4D98CB"/><path class="p-FEC356" d="M15.059 16.36c-5.867 0-10.644-5.16-11.137-11.716-.004-.051-.003.182-.003-3.762a.883.883 0 011.766 0v3.662c.44 5.64 4.551 10.052 9.374 10.052 4.822 0 8.934-4.413 9.374-10.052V.882a.883.883 0 011.766 0c0 3.944.001 3.71-.003 3.762-.494 6.553-5.268 11.717-11.137 11.717z" fill="#B9DFFC"/><path class="p-FEB020" d="M26.198.882a.883.883 0 00-1.767 0v3.662c-.439 5.638-4.55 10.05-9.37 10.052v1.765c5.867-.002 10.64-5.165 11.134-11.717.004-.051.003.182.003-3.762z" fill="#A1D1FD"/></svg>
